X:1
T:Nocturne, posth
T:NOCTURNE
C:Chopin
%%score { 1 | ( 2 3 4 ) }
L:1/8
M:4/4
K:E
V:1 treble nm="Piano"
V:2 bass 
V:3 bass 
V:4 bass 
V:1
!p!"^Lento con gran espressione" [EGc]2 z (!5![C-GB] !4![CFA]2)!<(! z (!4![C-EG] | %1
 !3![CE^^F]2!<)!!>(! !4![^B,DG]2)!>)! z4 | [EGc]2 z ([C-GB] [CFA]2)!<(! z ([C-EG] | %3
 [CE^^F]2!<)!!>(! [^B,DG]2)!>)! z4 |"^legato" (!3!g4 Tf4({ef} | !3-5!g4)!<(! !2!c4) | %6
 (!4!c'4-!<)! c'>b!>(! (3c'b!2!a!>)! | !>!!3!a4) z4 |!>(! (!4!g4!>)! !2!d4 | %9
!<(! !3!e4!<)!!>(! !4!f2 c2!>)! |!<(!({cd)} Td6-!<)! dc |!>(! d4)!>)! z2!p! (G2 | %12
 g4!<(! Tf4({efga}!<)! | g4) c2) (!1!c'2 | %14
!8va(! (3!4!c''!5!=d''!3!b' (3!1!a'!4!g'f'!8va)! ^e'/=d'/(3!3!c'/!>(!b/a/ (3!4!g/f/^e/(3=d/!3!c/!>)!B/ | %15
!<(! !>!A4-!<)!!>(! A2) z2!>)! |"_cresc." (=D4 =d3 !3!c | %17
 !>!T!2!^B2- B!<(!!1!=B/4=c/4^c/4^d/4 !5!e2 !4!dc!<)! |!f! G) z (!>!!5/4!A4 !4/3!G2 | %19
 !>!!2/1!C4) z4 |!pp! (!1!E2 F/G/!1!A/B/ (3c!<(!=dc B2)!<)! |!>(! (!5!e=d/c/ BA (3c!>)!dc B2) | %22
 (!2!!3![=de]2!<(! [de]>[de] !1!!2![ce]2 !2!!5![ec']2!<)! | %23
!>(!{/!2!!5![ec']} !1!!4![=db]>!1!!3![ca]!1!!4![db]>!2!!5![ec'] !1!!4![ca]4)!>)! | %24
"^sotto voce" (!2!C^D/!1!^E/ F!<(!G (3!4!ABA G2)!<)! |!>(! (!3!cB/A/ !3!G!1!C (3!4!AB!>)!A F2) | %26
!p! (!2!!3![FG]2!<(! [FG]>[FG] !1!!2![=EG]2 !2!!5![Ge]2!<)! | %27
!>(!{/!2!!5![Ge]} !1!!4![Fd]>!1!!3![Ec]!1!!4![Fd]>!2!!5![Ge] !1!!4![Ec]4)!>)! | %28
!f! (T!3!c2 ^Bc!>(! e3 d)!>)! | (!1!D>!4!c .!3!c.c !2!^B !>!!4!d3) | %30
!>(! (3(!3!G^AG!>)! ^^F^E !3!E3 D) |[M:2/4]!<(! (D>c!<)! ^E>^^F |[M:3/4] G) z/ (g/ ^B3 c) | %33
!p! d6- | d2 z2 z2 | z2 z2 c2 | d6- | d2 z2 z2 | z6 | z2 z2 C2 | D6- | D2 z4 | z6 | z6 || %44
[M:4/4][Q:1/4=120]"^Adagio" (3z[I:staff +1] (!2!D,!5!^B, (3!3!G,!1!B,[I:staff -1]D!>(! (3^B!3!G!1!B (3dg!1!^b!>)! | %45
!ppp! !fermata!g'4) z2 (G2 |"^Tempo I" g4!<(! Tf4({efga}!<)! |!>(! g4)!>)! c2) (c'2 | %48
!f!!8va(! (3c''=d''b' (3a'g'f'!8va)! ^e'/!>(!=d'/(3c'/b/a/ (3g/f/^e/(3=d/c/B/!>)! | %49
!p! A4)!<(! (!5!a4!<)! |!>(! g4!>)! d4 |!<(! T!3!e4!<)!!>(!{de} (.f2 .!2!c2)!>)! | %52
 (3!3!ded (3!2!^^c!3!d!1!e (3f/g/!1!a/!3!^a/!1!b/ (3!2!^b/!<(!!3!c'/!1!^^c'/(3d'/e'/f'/!<)! | %53
 !3-5!e'4 !4!d'2 !3!c'2 | !2!^b2) (!1!=a2!>(! !4!g2) (!2!d2!>)! | %55
!<(! !3!e2 !4!fg!<)!!>(! f2 !2!c2)!>)! |!<(!!>(!({cd)} (Td8{!2!c)}!<)!!>)! | %57
 !>!!2!c4!p! (18:8:18(!3!d/e/f/g/!1!a/b/c'/d'/c'/b/.a/.!3!g/.f/.e/.!4!d/.c/.B/.A/ | %58
 G4) (35:8:35(!>!!1!A/!<(!B/c/d/!1!e/f/g/!1!a/!8va(!b/c'/d'/!1!e'/f'/g'/!1!a'/b'/c''/!<)!d''/!>(!c''/b'/a'/g'/f'/e'/d'/c'/b/!8va)!a/!3!g/f/e/!4!d/c/!>)!B/A/ | %59
 !2!G4)"^delicato" (11:4:11(!1!A!<(!Bcd!1!e!<)!!>(!fe!4!dcB!>)!A | %60
 !>!G4) (13:4:13(!1!AB"^delicatissimo"cd!1!efg.f.e.!4!d.c.B.A | !>!!2!G8-)!pp! |!>(! G8!>)! | %63
 (G3 !4!c !1!^e!ppp!gc'!1!^e' | !fermata!c''8) |] %65
V:2
"_Left hand very soft, right hand delicate"!ped! C,,2 z!ped-up! (C,!ped! F,2) z!ped-up! (C, | %1
!ped! A,,2!ped-up!!ped! G,,2) z4!ped-up! |!pp!!ped! C,,2 z!ped-up! (C,!ped! F,2) z!ped-up! (C, | %3
!ped! A,,2!ped-up!!ped! G,,2) z4!ped-up! | %4
"^dolce"!ped! (C,!3!G,EC)!ped-up!!ped! (C,!3!A,DC)!ped-up! |!ped! (C,G,EC) (C,G,EC)!ped-up! | %6
 (C,G,^EC) (C,G,EC) | (D,!3!A,FC) (D,A,FC) | (^B,,!3!G,FD) (B,,G,FD) | (C,!3!G,EC) (A,,D,CF,) | %10
!ped! (G,,D,CD,) (G,,D,^B,!ped-up!^A,) |!ped! (G,,D,^B,G,!ped-up!!ped! G,,D,B,G,)!ped-up! | %12
!ped! (C,G,EC)!ped-up!!ped! (C,F,DC)!ped-up! | %13
!ped! (C,G,EC)!ped-up!!ped! (C,"^cresc."G,EC)!ped-up! | %14
"^con forza"!ped! (C,G,^EB,)!ped-up!!ped! (C,G,EB,)!ped-up! | %15
!ped! (F,A,FC A,!5!F,!1!A,!ped-up!!3!C,) |!ped! (F,,!3!=D,A,F,)!ped-up!!ped! (F,,D,A,F,)!ped-up! | %17
!ped! (F,,^D,A,F,)!ped-up!!ped! (^^F,,E,CA,)!ped-up! | %18
!ped! (G,,!3!E,CG,)!ped-up!!ped! (G,,D,^B,F,)!ped-up! | %19
!ped! (!4!C,"^(dim.)"!1!G,E,D, !4!C,!ped-up!!1!E,!3!C,!4!B,,) | %20
!ped! (A,,E,CA,)!ped-up!!ped! (A,,E,=DG,)!ped-up! |!ped! (A,,E,CA,) (A,,E,=DG,)!ped-up! | %22
 (A,,E,EG,) (A,,E,EA,) | (A,,E,EG,) (A,,E,CA,) | (F,,C,A,F,) (F,,C,B,^E,) | %25
 (F,,C,B,^E,) (F,,C,A,F,) | (G,,D,^B,G,) (C,=E,CG,) | (G,,D,^B,G,) (C,E,CG,) | %28
 (=A,,D,C^^F,) (G,,D,^B,G,) | (A,,!pp!D,D^^F,) (G,,D,^B,G,) | %30
!ped! (^^C,^E,=B,G,)!ped-up!!ped! (D,G,^B,^^G,)!ped-up! |[M:2/4]!ped! (D,^A,CD)!ped-up! | %32
[M:3/4]"^cresc."!ped! (3(G,,D,G, ^B,3 G,!ped-up! | %33
!ped! .=A,,2) (3(!5!D,!4!^^F,!1!D !2!C2)!ped-up! |!ped! (3(G,,D,G, !>!^B,3 G,!ped-up! | %35
!ped! .D,,2) (3(D,"^sempre           più         dim."^^F,^B, ^A,2)!ped-up! | %36
!ped! (3(G,,D,G, !>!^B,3 G,!ped-up! |!ped! .=A,,2) (3(D,^^F,D C2)!ped-up! | %38
!ped! (3(G,,D,G, ^B,3 G,!ped-up! |!ped! .D,,2) (3(D,^^F,^B, ^A,2)!ped-up! | %40
!ped! (3(G,,"^sempre      più      piano,      rallentando"D,G, ^B,3 G,!ped-up! | %41
!ped! .D,,2) (3(D,^^F,^B, ^A,2)!ped-up! |!ped! z2"^(m.d.)" ^B,3 G,!ped-up! | %43
!ped! z2 (3(D,^^F,^B, ^A,2)!ped-up! ||[M:4/4]!ped! G,,,2 z2"^morendo" z4 | !fermata!z8!ped-up! | %46
"^dolce"!ped! (C,G,EC) (C,A,DC)!ped-up! | (C,G,EC) (C,"^cresc."G,EC) | (C,G,^EB,) (C,G,EB,) | %49
!ped! (F,,C,A,F,)!ped-up!!ped! (F,,C,A,F,)!ped-up! |!ped! (^B,,F,DG,) (B,,F,DG,)!ped-up! | %51
 (C,E,CG,) (A,,D,CF,) |"^con forza" (G,,D,^CF,) (G,,D,^B,G,) | %53
"^appassionato" (^^F,,E,C^A,) (F,,D,CA,) | (G,,D,^B,F,) (^B,,F,DG,) | (C,E,CG,) (A,,D,CF,) | %56
 (G,,D,CF,) (G,,D,^B,F,) | (C,G,EC)!<(! (C,F,!<)!!>(!DC)!>)! | %58
 (C,G,EC) (C,"_sempre    più    piano"F,DC) | (C,G,EC) (C,F,DC) | %60
 (C,G,EC)!<(! (C,F,!<)!!>(!DC)!>)! | (C,G,EC) (C,F,DC) | (C,G,EC) (C,F,DC) | %63
 (C,G,^EC G,!1!^E,!2!C,!3!G,, | !fermata!C,,8) |] %65
V:3
 x8 | x8 | x8 | x8 | x8 | x8 | x8 | x8 | x8 | x8 | x2 (C2 x2 ^B,^A,) | x2 ^B,2 x4 | %12
 x G,2 x2 F,2 x | x G,2 x5 | x8 | x8 | x8 | x8 | x8 | x8 | x8 | x8 | x8 | x8 | x8 | x8 | x8 | x8 | %28
 x8 | x8 | x8 |[M:2/4] x4 |[M:3/4] x6 | x6 | x6 | x6 | x6 | x6 | x6 | x6 | x6 | x6 | x6 | x6 || %44
[M:4/4] x8 | x8 | x8 | x8 | x8 | x8 | x8 | x8 | x8 | x8 | x8 | x8 | x8 | x8 | x8 | x8 | x8 | %61
 x2 E2 x2 D2 | x2 E2 x2 D2 | x2 ^E2 x4 | x8 |] %65
V:4
 x8 | x8 | x8 | x8 | x8 | x8 | x8 | x8 | x8 | x8 | x8 | x8 | x8 | x8 | x8 | x8 | x8 | x8 | x8 | %19
 x8 | x8 | x8 | x8 | x8 | x8 | x8 | x8 | x8 | x8 | x8 | x8 |[M:2/4] x4 |[M:3/4] x6 | x6 | x6 | x6 | %36
 x6 | x6 | x6 | x6 | x6 | x6 | (3(G,,D,G, z2 z2 | D,,2) z2 z2 ||[M:4/4] x8 | x8 | x8 | x8 | x8 | %49
 x8 | x8 | x8 | x8 | x8 | x8 | x8 | x8 | x8 | x8 | x8 | x8 | x8 | x8 | x8 | x8 |] %65

